X: 20221
Q: "Slowish."
M: 2/4
L: 1/16
K: C
c2c2d2d2 | ~e3g d2de | c6 G2 |\
c2c2d2d2 | (e2e/f/^f/g/) c2d>e | c6 |]\
f2f2 f2Ha>g | Hg2He>e .f.e.d.c |\
.d.d.d.d .e.d.c.B | c2~c>d e>gf>d | c6 :|


